src/components/select-mode/select.svg

<?xml version="1.0" encoding="UTF-8" standalone="no"?>
<svg width="20px" height="20px" viewBox="0 0 20 20" version="1.1" xmlns="http://www.w3.org/2000/svg" xmlns:xlink="http://www.w3.org/1999/xlink">
    <!-- Generator: Sketch 43.2 (39069) - http://www.bohemiancoding.com/sketch -->
    <title>select</title>
    <desc>Created with Sketch.</desc>
    <defs></defs>
    <g id="Page-1" stroke="none" stroke-width="1" fill="none" fill-rule="evenodd">
        <g id="select" fill="#575E75">
            <path d="M9.08480709,12.7519131 L10.2692937,15.3910753 C10.5025281,15.912848 11.1105098,16.1432755 11.6267701,15.9075508 C12.1430304,15.6705018 12.3710236,15.0560284 12.1377892,14.53558 L10.9669627,11.925728 L13.925853,11.925728 C14.5130486,11.925728 14.7937693,11.2121948 14.3623865,10.8190495 L7.0791007,4.17004294 C6.6670336,3.7934914 6,4.08324462 6,4.63849857 L6,14.5028722 C6,15.0900373 6.73013138,15.3657496 7.12288282,14.9279287 L9.08480709,12.7519131 Z" id="select-icon"></path>
        </g>
    </g>
</svg>

<svg width="20" height="20" xmlns="http://www.w3.org/2000/svg"><path d="M9.0848 12.75191l1.1845 2.63917c.23323.52177.84121.7522 1.35747.51647.51626-.23705.74425-.85152.51102-1.37197l-1.17083-2.60985h2.9589c.58719 0 .8679-.71354.43653-1.10668l-7.28329-6.649C6.66703 3.79348 6 4.08324 6 4.6385v9.86437c0 .58717.73013.86288 1.12288.42506l1.96193-2.17602z" fill="#575E75" fill-rule="evenodd"/></svg>
